static/logos/slack-glyph-color.svg

<svg width="50" height="50" viewBox="0 0 50 50" fill="none" xmlns="http://www.w3.org/2000/svg">
<g clip-path="url(#clip0_1_1043)">
<path d="M10.7062 31.496C10.7062 34.3701 8.38337 36.6929 5.50935 36.6929C2.63533 36.6929 0.3125 34.3701 0.3125 31.496C0.3125 28.622 2.63533 26.2992 5.50935 26.2992H10.7062V31.496ZM13.3046 31.496C13.3046 28.622 15.6275 26.2992 18.5015 26.2992C21.3755 26.2992 23.6983 28.622 23.6983 31.496V44.4882C23.6983 47.3622 21.3755 49.685 18.5015 49.685C15.6275 49.685 13.3046 47.3622 13.3046 44.4882V31.496Z" fill="#E01E5A"/>
<path d="M18.5018 10.6299C15.6278 10.6299 13.3049 8.30707 13.3049 5.43306C13.3049 2.55904 15.6278 0.236206 18.5018 0.236206C21.3758 0.236206 23.6986 2.55904 23.6986 5.43306V10.6299H18.5018ZM18.5018 13.2677C21.3758 13.2677 23.6986 15.5905 23.6986 18.4646C23.6986 21.3386 21.3758 23.6614 18.5018 23.6614H5.47029C2.59627 23.6614 0.273438 21.3386 0.273438 18.4646C0.273438 15.5905 2.59627 13.2677 5.47029 13.2677H18.5018Z" fill="#36C5F0"/>
<path d="M39.3281 18.4646C39.3281 15.5905 41.6509 13.2677 44.5249 13.2677C47.3989 13.2677 49.7218 15.5905 49.7218 18.4646C49.7218 21.3386 47.3989 23.6614 44.5249 23.6614H39.3281V18.4646ZM36.7296 18.4646C36.7296 21.3386 34.4068 23.6614 31.5328 23.6614C28.6588 23.6614 26.3359 21.3386 26.3359 18.4646V5.43306C26.3359 2.55904 28.6588 0.236206 31.5328 0.236206C34.4068 0.236206 36.7296 2.55904 36.7296 5.43306V18.4646V18.4646Z" fill="#2EB67D"/>
<path d="M31.5328 39.2913C34.4068 39.2913 36.7296 41.6142 36.7296 44.4882C36.7296 47.3622 34.4068 49.685 31.5328 49.685C28.6588 49.685 26.3359 47.3622 26.3359 44.4882V39.2913H31.5328ZM31.5328 36.6929C28.6588 36.6929 26.3359 34.3701 26.3359 31.496C26.3359 28.622 28.6588 26.2992 31.5328 26.2992H44.5643C47.4383 26.2992 49.7611 28.622 49.7611 31.496C49.7611 34.3701 47.4383 36.6929 44.5643 36.6929H31.5328Z" fill="#ECB22E"/>
</g>
<defs>
<clipPath id="clip0_1_1043">
<rect width="50" height="50" fill="white"/>
</clipPath>
</defs>
</svg>

<svg xmlns="http://www.w3.org/2000/svg" width="64" height="64" fill="none" viewBox="0 0 50 50"><g clip-path="url(#a)"><path fill="#E01E5A" d="M10.706 31.496a5.192 5.192 0 0 1-5.197 5.197 5.192 5.192 0 0 1-5.197-5.197 5.192 5.192 0 0 1 5.197-5.197h5.197v5.197Zm2.599 0a5.192 5.192 0 0 1 5.197-5.197 5.192 5.192 0 0 1 5.196 5.197v12.992a5.192 5.192 0 0 1-5.197 5.197 5.192 5.192 0 0 1-5.196-5.197V31.496Z"/><path fill="#36C5F0" d="M18.502 10.63a5.192 5.192 0 0 1-5.197-5.197A5.192 5.192 0 0 1 18.502.236a5.192 5.192 0 0 1 5.197 5.197v5.197h-5.197Zm0 2.638a5.192 5.192 0 0 1 5.197 5.197 5.192 5.192 0 0 1-5.197 5.196H5.47a5.192 5.192 0 0 1-5.197-5.196 5.192 5.192 0 0 1 5.197-5.197h13.032Z"/><path fill="#2EB67D" d="M39.328 18.465a5.192 5.192 0 0 1 5.197-5.197 5.192 5.192 0 0 1 5.197 5.197 5.192 5.192 0 0 1-5.197 5.196h-5.197v-5.196Zm-2.598 0a5.192 5.192 0 0 1-5.197 5.196 5.192 5.192 0 0 1-5.197-5.196V5.433A5.192 5.192 0 0 1 31.533.236a5.192 5.192 0 0 1 5.197 5.197v13.032Z"/><path fill="#ECB22E" d="M31.533 39.291a5.192 5.192 0 0 1 5.197 5.197 5.192 5.192 0 0 1-5.197 5.197 5.192 5.192 0 0 1-5.197-5.197v-5.197h5.197Zm0-2.598a5.192 5.192 0 0 1-5.197-5.197 5.192 5.192 0 0 1 5.197-5.197h13.031a5.192 5.192 0 0 1 5.197 5.197 5.192 5.192 0 0 1-5.197 5.197H31.533Z"/></g><defs><clipPath id="a"><path fill="#fff" d="M0 0h50v50H0z"/></clipPath></defs></svg>
